material/.icons/material/camera-retake.svg

<svg xmlns="http://www.w3.org/2000/svg" viewBox="0 0 24 24"><path d="M20 5h-3l-2-2H9L7 5H4a2 2 0 00-2 2v12a2 2 0 002 2h16a2 2 0 002-2V7a2 2 0 00-2-2m-8 13c-1.08 0-2.14-.35-3-1l1.44-1.44c.47.29 1.01.44 1.56.44a3 3 0 003-3 3 3 0 00-3-3c-1.26 0-2.4.8-2.82 2H11l-3 3-3-3h2.1A4.997 4.997 0 0113 8.1a5 5 0 01-1 9.9z"/></svg>

<?xml version="1.0" encoding="UTF-8"?><!DOCTYPE svg PUBLIC "-//W3C//DTD SVG 1.1//EN" "http://www.w3.org/Graphics/SVG/1.1/DTD/svg11.dtd"><svg xmlns="http://www.w3.org/2000/svg" xmlns:xlink="http://www.w3.org/1999/xlink" version="1.1" id="mdi-camera-retake" width="24" height="24" viewBox="0 0 24 24"><path d="M20,5H17L15,3H9L7,5H4A2,2 0 0,0 2,7V19A2,2 0 0,0 4,21H20A2,2 0 0,0 22,19V7A2,2 0 0,0 20,5M12,18C10.92,18 9.86,17.65 9,17L10.44,15.56C10.91,15.85 11.45,16 12,16A3,3 0 0,0 15,13A3,3 0 0,0 12,10C10.74,10 9.6,10.8 9.18,12H11L8,15L5,12H7.1C7.65,9.29 10.29,7.55 13,8.1C15.7,8.65 17.45,11.29 16.9,14C16.42,16.33 14.38,18 12,18Z" /></svg>
